X:29
T:Miss Vearie Hay’s Reel. 2voices Dix.29
M:C
L:1/8
Q:1/4=120
S:Anon. MS dated 1811, from Dixon collection, Holton le Moor, Lincs.
R:reel
N:Repeat signs added at start
O:England;Lincolnshire;Holton le Moor
Z:vmp.R.Greig 2012 <http://www.village-music-project.org.uk>
K:A
[V:1]|:c|A2EC B,>BB>c|A2EC ECcB|A>FE>C B,DCB,|A,>EC>E EAA:|
[V:2]|:z|A,,2A,,2 B,,2B,,2|A,,2A,,2A,,2A,,2|A,,2A,,2B,,2E,2|A,,2E,2A,,2A,,:|
[V:1]|:f|.e.A.c.A .e.A.d.f|.e.A.c.e .f.B.B.a|eAcA ceaf|e>cB>A FAAf|
[V:2]|:z|A,,2A,,2C,2D,2|A,,2A,,2B,,2B,,2|A,,2A,,2A,,2A,,2|E,2E,2A,,2A,,2|
[V:1]eAce Aece|dfce fBBd|cAEC EAec|fdBd cAA:|
[V:2]A,,2A,,2A,,2A,,2|F,2E,2D,2E,2|A,,2A,,2A,,2A,,2|D,2E,2A,,2A,,:|

